X: 35036
T: Rollicking Skipper, The
R: jig
M: 6/8
K: Gmajor
|:efg fdB|AGA G2A|BdB AGA|BAA A2d|
efg fdB|AGA G2A|BdB AGA|BGG GBd:|
|:egg egg|egg aed|eaa a2g|a2g age|
dgg dgg|egg aed|ege dBA|BGG GBd:|

